archcraft-icons-qogir/files/Qogir/22/actions/zoom.svg

<svg version="1.1" viewBox="0 0 22 22" xmlns="http://www.w3.org/2000/svg">
 <defs>
  <style id="current-color-scheme" type="text/css">.ColorScheme-Text {
        color:#5d656b;
      }</style>
 </defs>
 <path style="fill:currentColor" class="ColorScheme-Text" d="m5 3c-1.108 0-2 0.892-2 2v1h1v-1c0-0.554 0.446-1 1-1h1v-1h-1zm6 0-2 2h4l-2-2zm5 0v1h1c0.554 0 1 0.446 1 1v1h1v-1c0-1.108-0.892-2-2-2h-1zm-11 6-2 2 2 2v-4zm12 0v4l2-2-2-2zm-14 7v1c0 1.108 0.892 2 2 2h1v-1h-1c-0.554 0-1-0.446-1-1v-1h-1zm15 0v1c0 0.554-0.446 1-1 1h-1v1h1c1.108 0 2-0.892 2-2v-1h-1zm-9 1 2 2 2-2h-4z"/>
</svg>

<svg xmlns="http://www.w3.org/2000/svg" viewBox="0 0 22 22">
  <defs id="defs3051">
    <style type="text/css" id="current-color-scheme">
      .ColorScheme-Text {
        color:#5d656b;
      }
      </style>
  </defs>
 <path 
    style="fill:currentColor;fill-opacity:1;stroke:none" 
    d="M 3 3 L 3 4 L 3 6 L 4 6 L 4 4 L 6 4 L 6 3 L 4 3 L 3 3 z M 11 3 L 9 5 L 13 5 L 11 3 z M 16 3 L 16 4 L 18 4 L 18 6 L 19 6 L 19 4 L 19 3 L 18 3 L 16 3 z M 5 9 L 3 11 L 5 13 L 5 9 z M 17 9 L 17 13 L 19 11 L 17 9 z M 3 16 L 3 18 L 3 19 L 6 19 L 6 18 L 4 18 L 4 16 L 3 16 z M 18 16 L 18 18 L 16 18 L 16 19 L 19 19 L 19 16 L 18 16 z M 9 17 L 11 19 L 13 17 L 9 17 z "
    class="ColorScheme-Text"
    />  
</svg>
